X: 5170
T: Bring Back The Child
R: jig
M: 6/8
K: Gmajor
|:gfe d2B|cAA BGE|gfe (3ded B|cBA GBd|
gfe d2B|cAA BGE|gfe d2B|1 cAF GBd:|2 cAF GAG||
|:FGA D2B|cAA BGG|FGA DdB|cAF GAG|
FGA D2B|cAA BGG|FGA DdB|1 cAF GAG:|2 cAF G3||

